local/share/icons/dracula-icons-main/symbolic/actions/keyboard-layout-filled-symbolic.svg

<?xml version="1.0" encoding="UTF-8"?>
<svg xmlns="http://www.w3.org/2000/svg" xmlns:xlink="http://www.w3.org/1999/xlink" width="16" height="16" viewBox="0 0 16 16">
<path fill-rule="nonzero" fill="rgb(21.176471%, 21.176471%, 21.176471%)" fill-opacity="1" d="M 5.027344 2.046875 C 3.472656 2.09375 2.25 2.359375 1.503906 2.703125 C 1.101562 2.886719 0.800781 3.082031 0.59375 3.246094 C 0.386719 3.40625 0.226562 3.585938 0.226562 3.585938 C 0.0820312 3.765625 0 3.992188 0 4.222656 L 0 13 C 0 13.875 1.042969 14.328125 1.679688 13.730469 C 1.679688 13.730469 1.636719 13.761719 1.722656 13.710938 C 1.8125 13.660156 1.980469 13.570312 2.25 13.472656 C 2.796875 13.28125 3.769531 13.058594 5.34375 13.058594 C 6.585938 13.058594 7.519531 13.269531 8.53125 13.503906 C 9.546875 13.738281 10.640625 14 12.023438 14 C 14.390625 14 15.765625 12.421875 15.765625 12.421875 C 15.917969 12.242188 16 12.011719 16 11.777344 L 16 3 C 16 2.144531 15 1.683594 14.347656 2.242188 C 14.347656 2.242188 13.625 2.910156 11.992188 2.910156 C 10.519531 2.910156 9.738281 2.710938 8.839844 2.484375 C 8.003906 2.273438 6.980469 2.066406 5.578125 2.035156 C 5.398438 2.039062 5.195312 2.039062 5.027344 2.046875 Z M 5.34375 3 C 8.292969 3 8.851562 3.910156 11.992188 3.910156 C 13.9375 3.910156 15 3 15 3 L 15 11.777344 C 15 11.777344 13.96875 13 12.023438 13 C 9.507812 13 8.058594 12.058594 5.34375 12.058594 C 2.007812 12.058594 1 13 1 13 L 1 4.222656 C 1 4.222656 2.007812 3 5.34375 3 Z M 5.34375 3 "/>
<path fill-rule="nonzero" fill="rgb(21.176471%, 21.176471%, 21.176471%)" fill-opacity="1" d="M 7.578125 5.054688 C 8.902344 5.054688 9.945312 6.132812 9.945312 7.484375 C 9.945312 8.839844 8.902344 9.949219 7.578125 9.949219 C 6.253906 9.949219 5.179688 8.839844 5.179688 7.484375 C 5.179688 6.132812 6.253906 5.054688 7.578125 5.054688 Z M 3.027344 6.019531 L 3.992188 7.050781 L 3.058594 7.019531 L 3.992188 8.015625 L 3.027344 7.984375 L 3.992188 9.011719 L 2.996094 8.980469 L 3.027344 7.984375 L 2.996094 7.984375 L 3.027344 7.019531 L 2.996094 7.019531 Z M 7.578125 6.019531 C 6.785156 6.019531 6.113281 6.675781 6.113281 7.484375 C 6.113281 8.292969 6.785156 8.949219 7.578125 8.949219 C 8.371094 8.949219 9.011719 8.292969 9.011719 7.484375 C 9.011719 6.675781 8.371094 6.019531 7.578125 6.019531 Z M 11.941406 6.019531 L 11.941406 7.019531 L 11.972656 7.984375 L 11.941406 7.984375 L 11.972656 8.980469 L 10.976562 9.011719 L 11.941406 7.984375 L 10.976562 8.015625 L 11.910156 7.019531 L 10.976562 7.050781 Z M 4.023438 8.980469 L 4.992188 10.011719 L 3.992188 9.980469 Z M 10.945312 8.980469 L 10.976562 9.980469 L 9.976562 10.011719 Z M 5.023438 9.980469 L 5.988281 11.007812 L 4.992188 10.976562 Z M 9.945312 9.980469 L 9.976562 10.976562 L 8.980469 11.007812 Z M 9.945312 9.980469 "/>
</svg>

<svg width="16" height="16" version="1.1" viewBox="0 0 16 16" xmlns="http://www.w3.org/2000/svg">
 <path d="m5.0273 2.0469c-1.5565 0.048758-2.7774 0.31438-3.5215 0.6543-0.40593 0.18544-0.70507 0.38119-0.91211 0.54297-0.20704 0.16178-0.36523 0.3418-0.36523 0.3418-0.14782 0.17925-0.22862 0.40438-0.22852 0.63672v8.7773c-4.4155e-4 0.87416 1.0419 1.3281 1.6816 0.73242 0 0-0.043969 0.03077 0.042969-0.02148 0.086938-0.05226 0.25409-0.14226 0.52734-0.23828 0.5465-0.19204 1.5184-0.41406 3.0918-0.41406 1.2419 0 2.1765 0.211 3.1895 0.44531 1.013 0.23431 2.1083 0.49609 3.4922 0.49609 2.3641 0 3.7402-1.5781 3.7402-1.5781 0.15165-0.1805 0.23466-0.40878 0.23438-0.64453v-8.7773c-4.4e-5 -0.85406-1.0015-1.3151-1.6504-0.75977 0 0-0.72405 0.66797-2.3574 0.66797-1.4738 0-2.2551-0.19759-3.1523-0.42383-0.83656-0.21094-1.8577-0.4198-3.2598-0.45117-0.18018 0.0058595-0.38605 0.0060688-0.55273 0.013672zm0.31641 0.95312c2.9477 0 3.5079 0.9082 6.6484 0.9082 1.945 0 3.0078-0.9082 3.0078-0.9082v8.7773s-1.0295 1.2227-2.9746 1.2227c-2.519 0-3.9669-0.94141-6.6816-0.94141-3.3349 0-4.3438 0.94141-4.3438 0.94141v-8.7773s1.0089-1.2227 4.3438-1.2227z" color="#000000" color-rendering="auto" dominant-baseline="auto" fill="#363636" image-rendering="auto" shape-rendering="auto" solid-color="#000000" style="font-feature-settings:normal;font-variant-alternates:normal;font-variant-caps:normal;font-variant-ligatures:normal;font-variant-numeric:normal;font-variant-position:normal;isolation:auto;mix-blend-mode:normal;shape-padding:0;text-decoration-color:#000000;text-decoration-line:none;text-decoration-style:solid;text-indent:0;text-orientation:mixed;text-transform:none;white-space:normal"/>
 <path d="m7.578 5.0544c1.3254 0 2.369 1.0776 2.369 2.4313s-1.0436 2.4625-2.369 2.4625-2.4002-1.1088-2.4002-2.4625 1.0748-2.4313 2.4002-2.4313zm-4.5509 0.9663 0.9663 1.0286-0.93512-0.03112 0.93512 0.99747-0.9663-0.03112 0.9663 1.0286-0.99747-0.03112 0.031121-0.99747h-0.031121l0.031121-0.96635h-0.031121zm4.5509 0c-0.79199 0-1.465 0.65613-1.465 1.465s0.67304 1.465 1.465 1.465c0.79199 0 1.4339-0.65613 1.4339-1.465s-0.64187-1.465-1.4339-1.465zm4.3639 0v0.99747l0.03112 0.9663h-0.03112l0.03112 0.99747-0.99747 0.03112 0.9663-1.0286-0.9663 0.03112 0.93512-0.99747-0.93512 0.03112zm-7.9174 2.9612 0.9663 1.0286-0.99747-0.03112zm6.9199 0 0.03112 0.99747-0.99747 0.03112zm-5.9225 0.99747 0.9663 1.0286-0.99747-0.03112zm4.925 0 0.03112 0.99747-0.99747 0.03112z" fill="#363636"/>
</svg>
